X:1
T:Title
%%score { ( 1 3 ) | 2 }
L:1/8
M:4/4
K:Eb
V:1 treble nm="Grand Piano"
V:3 treble 
V:2 bass 
V:1
 z4 z2[Q:1/4=100] EF | GGG[FA] [GB]2 GE | [EG] [DF]3 z2 [DF][EG] | %3
 [FA][FA][FA][GB] [Ac]2 [GB][FA] | [EG] [GB]3 z2 [EG][FA] | [GB][GB][GB][GB] [GB]2 AG | %6
 cccc c2 c[Ad] | [Ge][Ge][Bd][Ac] [GB]2 [B,EG][G,B,E] |[M:7/8] [A,DF]- [A,DF]3 [G,E]3 | %9
[M:1/4] [B,EG][B,EG] |[M:4/4] z A3 z4 | z B3 z4 | [Ge][Ge][Bd][Ac] [GB]2 [EG][B,E] | %13
 [EG] [DF]3 z B,EF | z B3 z4 | z c3 z4 | [Ge][Ge][Bd][Ac] [GB]2 [B,EG][G,B,E] | %17
[M:7/8] [A,DF]- [A,DF]3 [G,E]3 |] %18
V:2
 z4 z2 [E,G,][E,A,E] | [E,B,E][E,B,E][E,B,E][E,E] [E,E]2 [E,B,E][E,G,] | %2
 [B,,B,] [B,,B,]3 z2 [B,,B,][B,,B,] | [B,,B,][B,,B,][B,,B,][B,,B,] [B,,B,]2 [B,,B,][B,,B,] | %4
 [E,B,] [E,E]3 z2 [E,B,][E,B,] | [E,E][E,E][E,E][E,E] [E,E]2 [F,B,D][K:treble][G,B,E] | %6
 [A,E][A,EA][A,EA][A,EA] [A,EA]2 [A,EA][K:bass][F,B,] | [E,B,][E,B,][E,B,][E,E] [E,E]2 E,E, | %8
[M:7/8] B,,- B,,3 E,3 |[M:1/4] E,E, |[M:4/4] B,,B,,B,,B,, B,,B,,D,D, | %11
 E,[E,E][E,E][E,E] [E,E][E,E][E,E][E,E] | [E,B,][E,B,][E,E][E,E] [E,E]2 [E,B,][E,G,] | %13
 [B,,B,][B,,B,]B,B, B,A,[G,B,][F,B,D] | [E,B,E][E,E][E,E][E,E] [E,E][E,E][E,_D][E,D] | %15
 [A,C][A,EA][A,E][A,E] [A,C][A,C][A,EA][K:bass][F,B,] | [E,B,][E,B,][E,E][E,E] [E,E]2 E,E, | %17
[M:7/8] B,,- B,,3 E,3 |] %18
V:3
 x8 | x8 | x8 | x8 | x8 | x8 | x8 | x8 |[M:7/8] x7 |[M:1/4] x2 | %10
[M:4/4] [B,DF][DF][DF][DF] [DF][DF][B,FA][B,FA] | [B,EG]GGG GG[GB][GB] | x8 | x8 | %14
 GGGG GG[GB][GB] | .A2 AA AAc[Ad] | x8 |[M:7/8] x7 |] %18

